X:1
T:Canaan, 87.87 refrain
T:Composer unknown (before 1939)
T:Canaan, 87.87 refrain
T:Public Domain
C:Composer unknown (before 1939)
Z:Public Domain
%%score ( 1 2 ) ( 3 4 )
L:1/8
M:4/4
K:G
V:1 treble 
V:2 treble 
V:3 bass 
V:4 bass 
V:1
 D2 | [DG]2 [EG]2 [FA]2 [FA]2 | [GB]2 [Ge]2 [Gd]2 (Bc) | [Gd]2 [GB]2 [Ec]2 [FA]2 | %4
 (G2 E2) [DG]2 D2 | [EG]2 [DG]2 [EA]2 [DA]2 | [DB]2 [Ge]2 [Gd]2 (Bc) | [Ad]2 [GB]2 [Gc]2 [FA]2 | %8
 (G2 E2) [DG]2 ||"^Refrain" (Bc) | [Gd]2 [Fd]2 [Gd]2 (ed) | [Ac]2 [Ac]2 [Ac]2 [Ad]2 | %12
 [GB]2 G2 [Ad]2 [GB]2 | [GB]4 [FA]2 D2 | [DG]2 [EG]2 [FA]2 [FA]2 | [GB]2 [Ge]2 [Gd]2 (Bc) | %16
 [Ad]2 [GB]2 [Gc]2 [FA]2 | (G2 E2) [DG]2 |] %18
V:2
 x2 | x8 | x6 G2 | x8 | G4 x4 | x8 | x6 G2 | x8 | G4 x2 || G2 | x6 B2 | x8 | x8 | x8 | x8 | x6 G2 | %16
 x8 | G4 x2 |] %18
V:3
 [G,B,]2 | [G,B,]2 [E,B,]2 [D,D]2 [D,D]2 | [G,D]2 [G,C]2 [G,B,]2 (G,A,) | %3
 [B,D]2 [G,D]2 [A,C]2 (DC) | (B,2 C2) [G,B,]2 [G,B,]2 | [E,B,]2 [B,,G,]2 [C,G,]2 [D,F,]2 | %6
 G,2 [G,C]2 [G,B,]2 [G,D]2 | [F,D]2 [G,D]2 [C,E]2 (DC) | (B,2 C2) [G,B,]2 || (G,A,) | %10
 [B,D]2 [A,C]2 [G,B,]2 [G,E]2 | [A,E]2 [G,_E]2 [F,D]2 [F,D]2 | [G,D]2 [G,B,]2 [F,D]2 [G,D]2 | %13
 [D,D]4 [D,D]2 [F,C]2 | [G,B,]2 [E,B,]2 [D,D]2 [D,D]2 | [G,D]2 [G,C]2 [G,B,]2 [G,D]2 | %16
 [F,D]2 [G,D]2 [C,E]2 (DC) | (B,2 C2) [G,B,]2 |] %18
V:4
 x2 | x8 | x6 D2 | x6 D,2 | G,4 x4 | x8 | x8 | x6 D,2 | G,4 x2 || D2 | x8 | x8 | x8 | x8 | x8 | %15
 x8 | x6 D,2 | G,4 x2 |] %18

